X:100
T: Swinging on a Gate
M: C|
L: 1/8
R:reel
K: G
|:"G"gedB G2AB | "Am"cABG AGEF | "G"G2Bd "C"g2fg | "D"eaag fdef |
| "G"gedB G2AB | "C"cABG AGEG | "Am"cABG "G"AGEG |1 "D"DGGF "G"G2 z2 :|2"D"DGGF "G"G2 Bd |
|:"G"~g2ga bgaf | "Em"gfed B2AG | "Am"EAAB cBAG | EAAB "D"cdef |
| "G"~g2ga bgaf | "Em"gfed B2AB | "Am"cABG "G"AGEG |1 "D"DGGF "G"G2 Bd :|2 "D"DGGF "G"G2 z2 :|

